public/assets/img/services/drop.svg

<svg width="100" height="100" viewBox="0 0 100 100" fill="none" xmlns="http://www.w3.org/2000/svg">
<path fill-rule="evenodd" clip-rule="evenodd" d="M48.5 1.50005C48.8 0.900049 49.3 0.600049 49.9 0.600049C49.7 0.600049 49.4999 0.700049 49.2999 0.700049C49.4999 0.600049 49.7 0.600049 49.9 0.600049H49.5999C33.3999 0.600049 20.2 13.7001 20.2 30C20.2 30.1 20.2 30.1001 20.2 30.2001C20.2 30.5001 20.1999 30.7 20.2999 31L28.1 50.5C28.7 50.3 29.4 50.2001 30.1 50.2001H31.5L24.2999 32.2001C27.5999 32.6001 30.6999 33.9 33.2999 36L33.9 36.5C34.3 36.8 34.6 37.0001 35 37.2001V37.4001L39.9 50H43.4L38.5999 36.8C38.9999 36.6 39.2999 36.4001 39.5999 36.2001L41.2 34.9001C43.7 32.9001 46.8 31.8 50 31.8C53.2 31.8 56.2999 32.9001 58.7999 34.9001L60.4 36.2001C60.7 36.5001 61.1 36.7 61.4 36.8L56.5999 50H60.0999L64.8 37.1V36.9001C65.2 36.7001 65.6 36.5001 65.9 36.2001L66.5 35.7001C69.1 33.6001 72.2 32.3 75.5 31.9L68.3 49.9001H69.6999C70.3999 49.9001 71.0999 50.0001 71.6999 50.2001L79.5 30.7001C79.6 30.4001 79.5999 30.2 79.5999 29.9C79.5999 29.8 79.5999 29.8001 79.5999 29.7001C79.5999 13.5 66.5 0.300049 50.2 0.300049H50C50.2 0.300049 50.5 0.400049 50.7 0.500049C59.4 5.00005 64.8 13.9 64.8 23.5V36.9001C63.7 37.3001 62.5 37.3001 61.4 36.9001L61.5 36.6V23.6C61.5 15.4001 57.1 7.90005 50 4.00005C49.8 3.90005 49.4999 3.70005 49.2999 3.60005C48.4999 3.30005 48.1 2.30005 48.5 1.50005ZM50 4.00005C42.9 7.90005 38.5 15.3 38.5 23.5V36.5L38.5999 36.8C37.4999 37.3 36.3 37.3 35.2 36.8V23.5C35.2 13.8 40.6999 5.00005 49.2999 0.700049C48.9999 0.900049 48.6999 1.10005 48.5999 1.40005C48.1999 2.20005 48.4999 3.20005 49.2999 3.60005C49.4999 3.80005 49.8 3.90005 50 4.00005Z" fill="white"/>
<path d="M45.1 53.3H55V61.6L51.9 60.4001C50.7 59.9001 49.4 59.9001 48.2 60.4001L45.1 61.6V53.3Z" fill="white"/>
<path d="M56.6 89.6H66.5V92.9H56.6V89.6Z" fill="white"/>
<path fill-rule="evenodd" clip-rule="evenodd" d="M41.8 53.3V64C41.8 65.2 43 66 44.1 65.5L49.5 63.3C49.9 63.1 50.3 63.1 50.7 63.3L56.1 65.5C57.2 65.9 58.4 65.1 58.4 64V53.3H69.9C70.2 53.3 70.4 53.3001 70.7 53.4001C72.2 53.7001 73.2 55 73.2 56.6V96.2C73.2 98 71.7 99.5 69.9 99.5H30.2C28.4 99.5 26.9 98 26.9 96.2V56.6C26.9 55 28 53.7001 29.4 53.4001C29.6 53.3001 29.9 53.3 30.1 53.3H41.8ZM53.3 89.6C53.3 87.8 54.8 86.3001 56.6 86.3001H66.5C68.3 86.3001 69.8 87.8 69.8 89.6V92.9001C69.8 94.7001 68.3 96.2 66.5 96.2H56.6C54.8 96.2 53.3 94.7001 53.3 92.9001V89.6ZM33.5 94.5C33.5 95.4 32.8 96.1 31.9 96.1C31 96.1 30.3 95.4 30.3 94.5C30.3 93.6 31 92.9001 31.9 92.9001C32.8 92.9001 33.5 93.6 33.5 94.5ZM36.8 96.1C37.7 96.1 38.4 95.4 38.4 94.5C38.4 93.6 37.7 92.9001 36.8 92.9001C35.9 92.9001 35.2 93.6 35.2 94.5C35.2 95.4 35.9 96.1 36.8 96.1Z" fill="white"/>
</svg>

<?xml version="1.0" encoding="utf-8"?>
<!-- Generator: Adobe Illustrator 28.3.0, SVG Export Plug-In . SVG Version: 6.00 Build 0)  -->
<svg version="1.1" id="Layer_1" xmlns="http://www.w3.org/2000/svg" xmlns:xlink="http://www.w3.org/1999/xlink" x="0px" y="0px"
	 viewBox="0 0 100 100" style="enable-background:new 0 0 100 100;" xml:space="preserve">
<style type="text/css">
	.st0{fill-rule:evenodd;clip-rule:evenodd;}
</style>
<path class="st0" d="M48.5,1.5c0.3-0.6,0.8-0.9,1.4-0.9c-0.2,0-0.4,0.1-0.6,0.1c0.2-0.1,0.4-0.1,0.6-0.1h-0.3
	c-16.2,0-29.4,13.1-29.4,29.4c0,0.1,0,0.1,0,0.2c0,0.3,0,0.5,0.1,0.8l7.8,19.5c0.6-0.2,1.3-0.3,2-0.3h1.4l-7.2-18
	c3.3,0.4,6.4,1.7,9,3.8l0.6,0.5c0.4,0.3,0.7,0.5,1.1,0.7v0.2L39.9,50h3.5l-4.8-13.2c0.4-0.2,0.7-0.4,1-0.6l1.6-1.3
	c2.5-2,5.6-3.1,8.8-3.1c3.2,0,6.3,1.1,8.8,3.1l1.6,1.3c0.3,0.3,0.7,0.5,1,0.6L56.6,50h3.5l4.7-12.9v-0.2c0.4-0.2,0.8-0.4,1.1-0.7
	l0.6-0.5c2.6-2.1,5.7-3.4,9-3.8l-7.2,18h1.4c0.7,0,1.4,0.1,2,0.3l7.8-19.5c0.1-0.3,0.1-0.5,0.1-0.8c0-0.1,0-0.1,0-0.2
	c0-16.2-13.1-29.4-29.4-29.4H50c0.2,0,0.5,0.1,0.7,0.2C59.4,5,64.8,13.9,64.8,23.5v13.4c-1.1,0.4-2.3,0.4-3.4,0l0.1-0.3v-13
	C61.5,15.4,57.1,7.9,50,4c-0.2-0.1-0.5-0.3-0.7-0.4C48.5,3.3,48.1,2.3,48.5,1.5L48.5,1.5z M50,4c-7.1,3.9-11.5,11.3-11.5,19.5v13
	l0.1,0.3c-1.1,0.5-2.3,0.5-3.4,0V23.5c0-9.7,5.5-18.5,14.1-22.8c-0.3,0.2-0.6,0.4-0.7,0.7c-0.4,0.8-0.1,1.8,0.7,2.2
	C49.5,3.8,49.8,3.9,50,4L50,4z M49.2,0.7C49.3,0.7,49.3,0.7,49.2,0.7C49.3,0.7,49.3,0.7,49.2,0.7L49.2,0.7z"/>
<path d="M45.1,53.3h9.9v8.3l-3.1-1.2c-1.2-0.5-2.5-0.5-3.7,0l-3.1,1.2L45.1,53.3z"/>
<path d="M56.6,89.6h9.9v3.3h-9.9V89.6z"/>
<path class="st0" d="M41.8,53.3V64c0,1.2,1.2,2,2.3,1.5l5.4-2.2c0.4-0.2,0.8-0.2,1.2,0l5.4,2.2c1.1,0.4,2.3-0.4,2.3-1.5V53.3h11.5
	c0.3,0,0.5,0,0.8,0.1c1.5,0.3,2.5,1.6,2.5,3.2v39.6c0,1.8-1.5,3.3-3.3,3.3H30.2c-1.8,0-3.3-1.5-3.3-3.3V56.6c0-1.6,1.1-2.9,2.5-3.2
	c0.2-0.1,0.5-0.1,0.7-0.1L41.8,53.3z M53.3,89.6c0-1.8,1.5-3.3,3.3-3.3h9.9c1.8,0,3.3,1.5,3.3,3.3v3.3c0,1.8-1.5,3.3-3.3,3.3h-9.9
	c-1.8,0-3.3-1.5-3.3-3.3V89.6z M33.5,94.5c0,0.9-0.7,1.6-1.6,1.6c-0.9,0-1.6-0.7-1.6-1.6s0.7-1.6,1.6-1.6
	C32.8,92.9,33.5,93.6,33.5,94.5z M36.8,96.1c0.9,0,1.6-0.7,1.6-1.6s-0.7-1.6-1.6-1.6c-0.9,0-1.6,0.7-1.6,1.6S35.9,96.1,36.8,96.1z"
	/>
</svg>
